library/css/icons/svgs/fi-web.svg

<svg xmlns="http://www.w3.org/2000/svg" width="100" height="100" viewBox="0 0 100 100"><path fill="#231F20" d="M50 12.5c-20.712 0-37.5 16.793-37.5 37.502 0 20.71 16.788 37.498 37.5 37.498s37.5-16.788 37.5-37.498c0-20.709-16.788-37.502-37.5-37.502zm-27.103 42.469h5.752c.985 7.432 4.148 14.173 8.826 19.569-7.501-3.844-13.015-11.022-14.578-19.569zm5.752-9.939h-5.752c1.564-8.546 7.078-15.724 14.579-19.568-4.678 5.396-7.842 12.137-8.827 19.568zm16.381 23.029c-3.177-3.65-5.406-8.14-6.313-13.089h6.313v13.089zm0-23.029h-6.313c.907-4.948 3.136-9.437 6.313-13.088v13.088zm32.072 0h-5.751c-.985-7.431-4.148-14.172-8.825-19.567 7.499 3.845 13.013 11.023 14.576 19.567zm-22.132 23.027v-13.088h6.313c-.908 4.948-3.137 9.438-6.313 13.088zm0-23.027v-13.089c3.177 3.65 5.406 8.14 6.313 13.089h-6.313zm7.553 29.509c4.678-5.396 7.843-12.137 8.828-19.57h5.752c-1.563 8.548-7.078 15.726-14.58 19.57z"/></svg>

<?xml version="1.0" encoding="utf-8"?>
<!-- Generator: Adobe Illustrator 17.0.0, SVG Export Plug-In . SVG Version: 6.00 Build 0)  -->
<!DOCTYPE svg PUBLIC "-//W3C//DTD SVG 1.1//EN" "http://www.w3.org/Graphics/SVG/1.1/DTD/svg11.dtd">
<svg version="1.1" id="Layer_1" xmlns="http://www.w3.org/2000/svg" xmlns:xlink="http://www.w3.org/1999/xlink" x="0px" y="0px"
	 width="100px" height="100px" viewBox="0 0 100 100" enable-background="new 0 0 100 100" xml:space="preserve">
<g>
	<path fill="#231F20" d="M50,12.5c-20.712,0-37.5,16.793-37.5,37.502C12.5,70.712,29.288,87.5,50,87.5
		c20.712,0,37.5-16.788,37.5-37.498C87.5,29.293,70.712,12.5,50,12.5z M22.897,54.969h5.752c0.985,7.432,4.148,14.173,8.826,19.569
		C29.974,70.694,24.46,63.516,22.897,54.969z M28.649,45.03h-5.752c1.564-8.546,7.078-15.724,14.579-19.568
		C32.798,30.858,29.634,37.599,28.649,45.03z M45.03,68.059c-3.177-3.65-5.406-8.14-6.313-13.089h6.313V68.059z M45.03,45.03h-6.313
		c0.907-4.948,3.136-9.437,6.313-13.088V45.03z M77.102,45.03h-5.751c-0.985-7.431-4.148-14.172-8.825-19.567
		C70.025,29.308,75.539,36.486,77.102,45.03z M54.97,68.057V54.969h6.313C60.375,59.917,58.146,64.407,54.97,68.057z M54.97,45.03
		V31.941c3.177,3.65,5.406,8.14,6.313,13.089H54.97z M62.523,74.539c4.678-5.396,7.843-12.137,8.828-19.57h5.752
		C75.54,63.517,70.025,70.695,62.523,74.539z"/>
</g>
</svg>
